X: 34482
T: Riding On A Load Of Hay
R: polka
M: 2/4
K: Eminor
E>F GA|Be ef/e/|dB AG|FD DF|
E>F GA|Be ee/f/|g/f/e B^d|e2 e2:|
|:e2 ee/f/|g/f/e fd|eB B>^c|dB AG|
FD De/f/|g/f/e fd|eB B>^c|dB AF|
E2 Ee/f/|g/f/e fd|eB B>^c|dB AG|
FD DF|EG FA|GB ee/f/|1 g/f/e B^d:|2 g/f/e af||

